resources/svg/shield-user-line.svg

<svg fill="currentColor" viewBox="0 0 24 24" xmlns="http://www.w3.org/2000/svg"><path d="M3.78307 2.82598L12 1L20.2169 2.82598C20.6745 2.92766 21 3.33347 21 3.80217V13.7889C21 15.795 19.9974 17.6684 18.3282 18.7812L12 23L5.6718 18.7812C4.00261 17.6684 3 15.795 3 13.7889V3.80217C3 3.33347 3.32553 2.92766 3.78307 2.82598ZM5 4.60434V13.7889C5 15.1263 5.6684 16.3752 6.7812 17.1171L12 20.5963L17.2188 17.1171C18.3316 16.3752 19 15.1263 19 13.7889V4.60434L12 3.04879L5 4.60434ZM12 11C10.6193 11 9.5 9.88071 9.5 8.5C9.5 7.11929 10.6193 6 12 6C13.3807 6 14.5 7.11929 14.5 8.5C14.5 9.88071 13.3807 11 12 11ZM7.52746 16C7.77619 13.75 9.68372 12 12 12C14.3163 12 16.2238 13.75 16.4725 16H7.52746Z"/></svg>

<svg xmlns="http://www.w3.org/2000/svg" viewBox="0 0 24 24" fill="currentColor">
    <g>
        <path fill="none" d="M0 0h24v24H0z"/>
        <path fill-rule="nonzero" d="M3.783 2.826L12 1l8.217 1.826a1 1 0 0 1 .783.976v9.987a6 6 0 0 1-2.672 4.992L12 23l-6.328-4.219A6 6 0 0 1 3 13.79V3.802a1 1 0 0 1 .783-.976zM5 4.604v9.185a4 4 0 0 0 1.781 3.328L12 20.597l5.219-3.48A4 4 0 0 0 19 13.79V4.604L12 3.05 5 4.604zM12 11a2.5 2.5 0 1 1 0-5 2.5 2.5 0 0 1 0 5zm-4.473 5a4.5 4.5 0 0 1 8.946 0H7.527z"/>
    </g>
</svg>
